X:1
T:Title
%%score { ( 1 3 ) | ( 2 4 ) }
L:1/8
Q:1/4=110
M:2/2
K:G
V:1 treble nm="Grand Piano"
V:3 treble 
V:2 treble 
V:4 treble 
V:1
 B2 B2 B2 B2 | c4 B4 | [CFA]2 [CFA]2 [DGB]2 [CFA]2 | G4- [GB]4 | B2 B2 B2 B2 | c4 B4 | %6
w: W.~H.~Doane * * *||||||
 A2 A2 B2 ^c2 | [Fd]8 | [Fd]2 [Fd]2 [FA]2 [GB]2 | [Ac]4 [Ac]4 | B2 B2 d2 B2 | [FA]8 | %12
w: ||||||
 B2 B2 B2 [=Fd]2 | [Ed]4 [Ec]4 | B2 A2 G2 F2 | [B,DG]8 | [Fd]2 [Gd]2 [Ad]2 [Fd]2 | d4 B4 | %18
w: ||||||
 e2 d2 [Ac]2 [GB]2 | [FA]8 | B2 B2 B2 [=Fd]2 | [Ed]4 [Ec]4 | B2 A2 G2 F2 | [B,DG]8 |] %24
w: ||||||
V:2
 [G,DG]2 [G,DG]2 [G,DG]2 [G,DG]2 | [G,EG]4 [G,DG]4 | D,2 D,2 D,2 D,2 | z4[K:treble] D4 | %4
 [G,DG]2 [G,DG]2 [G,DG]2 [G,DG]2 | [G,EG]4 [G,DG]4 | [A,DF]2 [A,DF]2 [A,^CG]2 [A,EG]2 | [D,D]8 | %8
 [D,D]2 [D,D]2 [D,D]2 [D,D]2 | [D,D]4 [D,D]4 | [G,DG]2 [G,DG]2 [G,B,G]2 [G,DG]2 | [D,D]8 | %12
 [G,DG]2 [G,DG]2 [G,DG]2[K:bass] [B,,G,]2 | [C,G,]4 [C,G,]4 | [D,G,D]2 [D,CD]2 [D,B,D]2 [D,A,D]2 | %15
 G,,8 | [D,A,]2 [D,B,]2 [D,C]2 [D,A,]2 | [G,B,G]4 [G,DG]4 | %18
 [G,CG]2 [G,B,G]2[K:bass] [F,D]2 [G,D]2 | [D,D]8 | [G,DG]2 [G,DG]2 [G,DG]2[K:bass] [B,,G,]2 | %21
 [C,G,]4 [C,G,]4 | [D,G,D]2 [D,CD]2 [D,B,D]2 [D,A,D]2 | [G,,G,]8 |] %24
V:3
 x8 | x8 | x8 | B,4 z4 | x8 | x8 | x8 | x8 | x8 | x8 | x8 | x8 | x8 | x8 | x8 | x8 | x8 | x8 | x8 | %19
 x8 | x8 | x8 | x8 | x8 |] %24
V:4
 x8 | x8 | x8 | G,8[K:treble] | x8 | x8 | x8 | x8 | x8 | x8 | x8 | x8 | x6[K:bass] x2 | x8 | x8 | %15
 x8 | x8 | x8 | x4[K:bass] x4 | x8 | x6[K:bass] x2 | x8 | x8 | x8 |] %24

